X: 13
T: The Tongadale Reel
T: The Frozen Haddock
I: Tongadale Reel, The
C: Farquhar MacDonald
C: \2511995 Taigh Na Teud (Christine Martin, publisher)
S: Email 2018-2-28 from Michael Pavan to the Roaring Jelly members.
R: Reel
L: 1/16
M: 2/4
K: Am
   AB |\
"Am"cBcB AEAB | cBcB "F"AFAc |\
"G"BGDG EDEG | DEGA "Em"BGG/G/G ||\
"Am"cBcB AE
AB |\
cBcB "F"AFAc | "G"BGDG \
[1 EDDd | dBcB "Am"A2 :|\
[2 "Em"EDEG | EDCB, "Am"A,2 |]
|: A,B, |\
"Am"CA,EA, FA,EA, | GA,EA, "F"FEDC |\
"G"B,G,DG, [1,3 EG,DG, | FG,EG, "Em"DC :|\
           [2,4 EDCB, | CA,A,G, "Am"A,2 :|
